X: 0721
M: 4/4
L: 1/8
K: C
c2cc c2ce | ggag f2d2 |\
d2dd defg | aaba a2g2 |\
gggg c'2g2 | ggag g2ee |
cccc cdef | g2ag f2de |\
ffdd d2gf | eccc c2ef |\
gc'ba gfed | eccc c2 |]

